X:39
T:The Morning Dance
S:John Moore's Book 2
Z:Transcribed by Taz Tarry 04/2021
%%VWML: Moore1-4494-p32-1
F:http://www.vwml.org/record/Moore2/4494/p32
M:2/4
L:1/8
K:G
GBGD|GB B2|cBAG|Bd d2|ceAc|BdGB|gedc|d2 d2:|
dedc|Ba a2|cdcB|Ag g2|ceAc|BdGB|Ac/A/ GF|G2 G2:|




